X: 43323
T: Wooed And Married And A'
R: jig
M: 6/8
K: Eminor
|:g|d2c BcA G3|d2d dgB d2g|dec BcA GAB|E2e eg^d e2:|
|:g|def gag fed|B2d gdB d2g|1 def gag fed|
B2e ef^d e2:|2 dec BcA GAB|E2e eg^d e2||

